svgs/thin/square-c.svg

<svg xmlns="http://www.w3.org/2000/svg" viewBox="0 0 448 512"><!--! Font Awesome Pro 6.3.0 by @fontawesome - https://fontawesome.com License - https://fontawesome.com/license (Commercial License) Copyright 2023 Fonticons, Inc. --><path d="M384 32H64C28.65 32 0 60.65 0 96v320c0 35.35 28.65 64 64 64h320c35.35 0 64-28.65 64-64V96C448 60.65 419.3 32 384 32zM432 416c0 26.47-21.53 48-48 48H64c-26.47 0-48-21.53-48-48V96c0-26.47 21.53-48 48-48h320c26.47 0 48 21.53 48 48V416zM306.4 176.8c3.109 3.094 8.203 3.062 11.31-.0938c3.094-3.141 3.062-8.203-.0938-11.31c-50.59-49.84-132.9-49.84-183.5 0C109.5 189.6 96 221.8 96 255.1s13.53 66.38 38.08 90.56c25.3 24.92 58.53 37.38 91.77 37.38s66.47-12.45 91.77-37.38c3.156-3.109 3.188-8.172 .0938-11.31c-3.109-3.156-8.203-3.188-11.31-.0938c-44.44 43.75-116.7 43.75-161.1 0C123.8 314 112 285.9 112 256s11.83-57.1 33.3-79.16C189.7 133.1 261.1 133.1 306.4 176.8z"/></svg>

<svg xmlns="http://www.w3.org/2000/svg" viewBox="0 0 448 512"><!-- Font Awesome Pro 6.0.0-alpha2 by @fontawesome - https://fontawesome.com License - https://fontawesome.com/license (Commercial License) --><path d="M384 32H64C28.654 32 0 60.654 0 96V416C0 451.346 28.654 480 64 480H384C419.346 480 448 451.346 448 416V96C448 60.654 419.346 32 384 32ZM432 416C432 442.467 410.467 464 384 464H64C37.533 464 16 442.467 16 416V96C16 69.533 37.533 48 64 48H384C410.467 48 432 69.533 432 96V416ZM306.391 176.844C309.5 179.938 314.594 179.906 317.703 176.75C320.797 173.609 320.766 168.547 317.609 165.438C267.016 115.594 184.672 115.594 134.078 165.438C109.531 189.625 96 221.797 96 256S109.531 322.375 134.078 346.562C159.375 371.484 192.609 383.938 225.844 383.938S292.312 371.484 317.609 346.562C320.766 343.453 320.797 338.391 317.703 335.25C314.594 332.094 309.5 332.062 306.391 335.156C261.953 378.906 189.703 378.906 145.297 335.156C123.828 314 112 285.891 112 256S123.828 198 145.297 176.844C189.703 133.094 261.984 133.094 306.391 176.844Z"/></svg>
